X:1301
T:The Duran Ranger
P:Duran Rangers
C:Traditional
R:Reel (8x32)
B:RSCDS 13-1
Z:Anselm Lingnau <anselm@strathspey.org>
M:C|
L:1/8
K:D
A|"D"FDFA d2ef|"G"gefd "A"c2BA|"G"BcdB "D"ABAF|"A"G2E2E3 A|
  "D"FDFA d2ef|"Em"gefd "A"c2BA|"G"BcdB "A7"ABAG|"D"F2D2D2||
fg|"A"afaf d2 ga|"G"bgbg "Em"e2 fg|"D"afaf abaf|"A7"g2e2e3 A|
  "D"FDFA d2ef|"Em"gefd "A"c2BA|"G"BcdB "A7"ABAG|"D"F2D2D2|]
